X:1
T:Chitarra smaniosa
T:Chitarra smaniosa
T:Raffaele Segré
T:Libero Bovio
T:by IMSLP - Pubblico dominio
T:by IMSLP - Pubblico dominio
T:by IMSLP - Pubblico dominio
C:Raffaele Segré
Z:Libero Bovio
Z:by IMSLP - Pubblico dominio
%%score ( 1 2 ) { ( 3 4 ) | ( 5 6 ) }
L:1/8
Q:1/4=70
M:3/4
K:Bb
V:1 treble nm="Voice"
V:2 treble 
V:3 treble nm="Piano"
V:4 treble 
V:5 bass 
V:6 bass 
V:1
"^Andantino mosso con passione" z6 | z6 | z6 | z6 | z6 |"^CANTO" z6 | z6 | z6 | z2 z2 d2 | %9
w: ||||||||N'ac\-|
 e2 !>!g3 ^f | d2 d2 d2 | e2 g3 ^f | d2 d2 d2 | f2 e2 e2 | dc B2 B2 | d2 c2 c2 | BA G2 d2 | %17
w: cor\- do'e chi\-|tar\- ra p'~'a|stra\- da su\-|la gne, me|pa\- re 'na|vo\- _ ce 'na|vo\- ce che|chia\- _ gne. Nun|
 e2 g3 f | d2 d2 d2 | e2 !arpeggio![Acg]3 f | d2 d2 d2 | f2 e z e2 | dc B2 B2 | d2 c2 A2 || %24
w: lu\- ce 'na|stel\- la p'o|cie\- lo ch'è|ni\- ro, sper\-|du\- to, san\-|ten\- _ to, pen\-|zan\- no su\-|
[K:G] G2 G4- | G2 z2 d2 | d4 B2 | B4 d2 | c2 z2 c2 | c2 c2 d2 | cB A2 B2 | d2 c2 d2 | B6- | %33
w: spi\- ro|* nfrà|nfrà, nfrà|nfrà, nfrà,|nfrà stu|suo\- no, sta|vo\- _ ce va|tro\- vaa chi|va!|
 B2 z2 d2 | d4 B2 | B4 d2 | c2 z2 c2 | c2 c2 d2 | BA G2 A2 |{Bc} B2 !fermata!A3 G | G6- | %41
w: * nfri,|nfri, nfri,|nfri, nfri,|nfri, 'nu|co\- re sta|'npe\- _ na, va|tro\- va pe|chi!|
 G2 z !fermata!z3 |] %42
w: |
V:2
 x6 | x6 | x6 | x6 | x6 | x6 | x6 | x6 | x6 | x6 | x6 | x6 | x6 | x6 | x6 | x6 | x6 | x6 | x6 | %19
 x6 | x6 | x6 | x6 | x6 ||[K:G] x6 | x6 | x6 | x6 | x6 | x6 | x6 | x6 | B6 | x6 | x6 | x6 | x6 | %37
 x6 | x6 | x6 | x6 | x6 |] %42
V:3
 g2 g2 g2 |{fg} !>!f2 e2 c2 | f2 !arpeggio!f2 e2 |{ef} !>!e2 d2 z2 |!p! c2 cdec | d4 z2 | %6
!ff! .D.E.D.C.A,.B, | !>!G,2 z2!<(! z2 | z2 z2!<)! d2 | e2!p! !arpeggio!g3 ^f | %10
 d2 !arpeggio![FAd]2 d2 | e2 !arpeggio!g3 ^f | d2 d2 d2 |!p! f2 !arpeggio!e2 e2 | dc B2 B2 | %15
 d2 c2 c2 | BA G2 d2 | e2 g3 f | d2 d2 d2 | e2 g3 f | d2 d2 d2 | f2 e z e2 | dc B2 B2 | d2 c2 A2 || %24
[K:G] G2 G4- | G2 z2 !arpeggio![DGBd]2 | !arpeggio![DGBd]4 !arpeggio![DGB]2 | %27
 !arpeggio![DGB]4 !arpeggio![DGBd]2 | [DFAc]2 z2 c2 | c2 c2 d2 | cB A2 B2 | d2 c2 d2 | B6- | %33
 B2 z2 d2 | !arpeggio![DGBd]4 !arpeggio![DGB]2 | !arpeggio![EGB]4 [DGd]2 | !arpeggio![EGc]2 z2 c2 | %37
 c2 c2 d2 | BA G2 A2 |{Bc} B2 !fermata!A3 G | G6 | [GBdg] z z2 !fermata!z2 |] %42
V:4
 x2 [=Bd]2 x2 | x6 | x2 !arpeggio![Ac]2 x2 | x6 | x6 | x6 | x6 | x6 | x6 | x2 !arpeggio![Ac]2 x2 | %10
 x6 | x2 !arpeggio![Ac]2 x2 | x6 | x2 !arpeggio![Ac]2 x2 | x6 | x6 | x6 | x6 | x6 | %19
 x2 !arpeggio![Ac]2 x2 | x6 | x2 [Gc]2 x2 | x6 | x6 ||[K:G] x6 | x6 | x6 | x6 | x6 | x6 | x6 | %31
 x2 !arpeggio![DF]2 x2 | z2 G2 F2 | E2 F2 D2 | x6 | x6 | x6 | x6 | x6 | x6 | x6 | x6 |] %42
V:5
!mf! !>!G,,2"^imitando la chitarra" !arpeggio![D,G,=B,]4 | !>![C,,C,]2 !arpeggio![E,G,C]4 | %2
 !>!F,,2 !arpeggio![F,A,CE]4 | !>!B,,2 !arpeggio![F,B,_D]2 [F,B,D]2 | %4
 !>!C,2"^calando" !arpeggio![G,CE]4 | !>!D,2 !arpeggio![G,B,D]2 !arpeggio![G,B,D]2 | %6
 .D,.E,.D,.C,.A,,.B,, | !>!G,,2 !arpeggio![D,G,B,]2 !arpeggio![D,G,B,]2 | %8
 !>!G,,2 !arpeggio![D,G,B,]2"^lento" !arpeggio![D,G,B,]2 | %9
 !arpeggio!!>![C,,C,]2 !arpeggio![E,G,C]2 !arpeggio![F,CD]2 | %10
 !>!G,,2 !arpeggio![D,G,B,]2 !arpeggio![G,B,D]2 | !>![C,,C,]2 !arpeggio![E,G,C]2 [^F,CD]2 | %12
 !>!G,,2 !arpeggio![D,G,B,]2 !arpeggio![G,B,D]2 | %13
!<(! !>![C,,C,]2 !arpeggio![E,G,C]2 !arpeggio![E,G,CE]2 | %14
 !>!G,,2!<)! !arpeggio![D,G,B,]2 !arpeggio![G,B,D]2 | %15
 !>!A,,2 !arpeggio![D,^F,C]2 !arpeggio![F,CD]2 | !>!G,,2 !arpeggio![D,G,B,]2 !arpeggio![G,B,D]2 | %17
 !>!F,,2 !arpeggio![F,A,CE]2 !arpeggio![A,CEF]2 | !>!B,,2 !arpeggio![F,B,D]2 !arpeggio![B,DF]2 | %19
 !>!F,,2 !arpeggio![F,A,CE]2 !arpeggio![A,CEF]2 | !>!B,,2 !arpeggio![F,B,D]2 !arpeggio![B,DF]2 | %21
 !>![C,,C,]2 !arpeggio![E,G,C]2 [G,CE]2 | !>!G,,2 !arpeggio![D,G,B,]2 !arpeggio![G,B,D]2 | %23
 !>![A,,,A,,]2 !arpeggio![D,^F,C]2 !arpeggio![D,F,C]2 || %24
[K:G]"^più mosso" !>!G,,2 [D,G,B,]2 [D,G,B,]2 | %25
 !>!D,,2 !arpeggio![D,G,B,]2"^affrett." !arpeggio![D,G,B,]2 | %26
 !>!G,,2 !arpeggio![D,G,B,]2 !arpeggio![D,G,B,]2 | %27
 !>!G,,2!>(! !arpeggio![D,G,B,]2 !arpeggio![D,G,B,]2 | %28
 !>!A,,2 !arpeggio![D,F,C]2 !arpeggio![D,F,C]2!>)! | %29
 !>!A,,2"^rall." !arpeggio![D,F,C]2 !arpeggio![D,F,C]2 | %30
 !>!A,,2 !arpeggio![D,F,C]2 !arpeggio![D,F,C]2 | %31
 !>!A,,2 !arpeggio![D,F,C]2"^sentito" !arpeggio![D,F,C]2 | %32
 !>!G,,2"^affrett," !arpeggio![D,G,B,]2 !arpeggio![D,G,B,]2 | %33
 !>!D,,2 !arpeggio![D,G,B,]2 !arpeggio![D,G,B,]2 | !>!G,,.G,.B,.G,.B,.G, | !>!F,.G,.B,.G,.B,.G, | %36
 !>!F,"^rall.".G,.B,.G,.B,.G, | !>!_E,.G,.B,.G,.B,.G, | !>!D,.G,.B,.G,.^C,.E, | %39
 !>!D,,2 !arpeggio![D,F,C]2 !arpeggio![D,F,C]2 | !>!G,,2 !arpeggio![D,G,B,]2 !arpeggio![G,B,D]2 | %41
 [B,DG] z z2 !fermata!z2 |] %42
V:6
 x6 | x6 | x6 | x6 | x6 | x6 | x6 | x6 | x6 | x6 | x6 | x6 | x6 | x6 | x6 | x6 | x6 | x6 | x6 | %19
 x6 | x6 | x6 | x6 | x6 ||[K:G] x6 | x6 | x6 | x6 | x6 | x6 | x6 | x6 | x6 | x6 | G,,2 x4 | %35
 F,2 x4 | F,2 x4 | _E,2 x4 | D,2 x4 | x6 | x6 | x6 |] %42

